X:1
T:The Ballyvourney
R:polka
M:2/4
L:1/8
K:Edor
|:EF/G/ FE|FD FA|EF/G/ FE|F2 A2|
|EF/G/ FE|FD FA|B>A B/c/d|1 e2 e2:|2 e2 eB/c/|]
|:dA FA|DA FA|B/c/B/A/ GB|A2 AB/c/|
|dA FA|DA FA|B>A B/c/d|1 e2 eB/c/:|2 e2 e2|]